images/svg/exit-fullscreen-w.svg

<?xml version="1.0" encoding="UTF-8"?>
<!DOCTYPE svg PUBLIC "-//W3C//DTD SVG 1.1//EN" "http://www.w3.org/Graphics/SVG/1.1/DTD/svg11.dtd">
<svg xmlns="http://www.w3.org/2000/svg" version="1.1" width="800px" height="800px" style="shape-rendering:geometricPrecision; text-rendering:geometricPrecision; image-rendering:optimizeQuality; fill-rule:evenodd; clip-rule:evenodd" xmlns:xlink="http://www.w3.org/1999/xlink">
<g><path style="opacity:0.993" fill="#ffffff" d="M 232.5,-0.5 C 258.833,-0.5 285.167,-0.5 311.5,-0.5C 311.667,103.167 311.5,206.834 311,310.5C 207.237,311.499 103.404,311.832 -0.5,311.5C -0.5,285.167 -0.5,258.833 -0.5,232.5C 77.1667,232.5 154.833,232.5 232.5,232.5C 232.5,154.833 232.5,77.1667 232.5,-0.5 Z"/></g>
<g><path style="opacity:0.994" fill="#ffffff" d="M 487.5,-0.5 C 513.833,-0.5 540.167,-0.5 566.5,-0.5C 566.5,77.1667 566.5,154.833 566.5,232.5C 644.167,232.5 721.833,232.5 799.5,232.5C 799.5,258.833 799.5,285.167 799.5,311.5C 695.833,311.667 592.166,311.5 488.5,311C 487.501,207.237 487.168,103.404 487.5,-0.5 Z"/></g>
<g><path style="opacity:0.993" fill="#ffffff" d="M -0.5,487.5 C 103.167,487.333 206.834,487.5 310.5,488C 311.499,591.763 311.832,695.596 311.5,799.5C 285.167,799.5 258.833,799.5 232.5,799.5C 232.5,721.833 232.5,644.167 232.5,566.5C 154.833,566.5 77.1667,566.5 -0.5,566.5C -0.5,540.167 -0.5,513.833 -0.5,487.5 Z"/></g>
<g><path style="opacity:0.994" fill="#ffffff" d="M 799.5,487.5 C 799.5,513.833 799.5,540.167 799.5,566.5C 721.833,566.5 644.167,566.5 566.5,566.5C 566.5,644.167 566.5,721.833 566.5,799.5C 540.167,799.5 513.833,799.5 487.5,799.5C 487.333,695.833 487.5,592.166 488,488.5C 591.763,487.501 695.596,487.168 799.5,487.5 Z"/></g>
</svg>

<svg xmlns="http://www.w3.org/2000/svg" shape-rendering="geometricPrecision" text-rendering="geometricPrecision" image-rendering="optimizeQuality" fill-rule="evenodd" clip-rule="evenodd" viewBox="0 0 800 800"><path fill="#fff" d="M232.5-.5h79q.3 155.5-.5 311a24293 24293 0 0 1-311.5 1v-79h233zm255 0h79v233h233v79q-155.5.3-311-.5a24293 24293 0 0 1-1-311.5m-488 488q155.5-.3 311 .5 1.5 155.7 1 311.5h-79v-233H-.5zm800 0v79h-233v233h-79q-.3-155.5.5-311 155.7-1.5 311.5-1"/></svg>
